X:1
T:Warning, 76.76.77.76
T:Warning, 76.76.77.76
T:Anonymous
T:Public Domain Courtesy of the Cyber Hymnal™
C:Anonymous
Z:Public Domain
Z:Courtesy of the Cyber Hymnal™
%%score ( 1 2 ) ( 3 4 )
L:1/8
Q:1/4=150
M:6/4
K:G
V:1 treble 
V:2 treble 
V:3 bass 
V:4 bass 
V:1
 (G2 D2) [DG]2 [EG]4 [FA]2 | ([GB]2 [FA]2) [GB]2 [Fd]4 [Fd]2 | (e2 d2) [GB]2 (A2 G2) [FA]2 | %3
 G6- G4 z2 | (G2 D2) [DG]2 [EG]4 [FA]2 | (B2 A2) [GB]2 [Fd]4 [Fd]2 | (e2 d2) [GB]2 (A2 G2) [DA]2 | %7
 [DG]6- [DG]4 z2 | [Ge]4 [Ge]2 ([Ge]2 [Ff]2) [Eg]2 | (d2 B2) [Gd]2 [Fd]6 | (B2 A2) G2 G4 [EG]2 | %11
 (G2 A2) [EB]2 E6 | (G2 D2) [DG]2 [EG]4 [FA]2 | ([GB]2 [FA]2) [GB]2 [Fd]4 [Fd]2 | %14
 (e2 d2) [GB]2 (A2 G2) [DA]2 | [DG]12 |] %16
V:2
 D4 x8 | x12 | G4 F4 x4 | G6- G4 x2 | D4 x8 | G4 x8 | G4 D4 x4 | x12 | x12 | G4 x8 | D4 G2 G4 x2 | %11
 E4 E6 x2 | D4 x8 | x12 | G4 D4 x4 | x12 |] %16
V:3
 [G,B,]4 [G,B,]2 [C,C]4 [D,A,]2 | [G,D]4 [G,D]2 [D,A,]4 [D,A,]2 | [G,B,]4 [G,B,]2 D4 [D,D]2 | %3
 [G,,B,]6- [G,,B,]4 z2 | [G,B,]4 [G,B,]2 [C,C]4 [D,A,]2 | [G,D]4 [G,D]2 [D,A,]4 [D,A,]2 | %6
 [G,B,]4 [G,B,]2 D4 [D,D]2 | [G,,B,]6- [G,,B,]4 z2 | G,4 [G,B,]2 ([E,B,]2 [D,A,]2) [C,G,]2 | %9
 [G,B,]4 [G,B,]2 [D,A,]6 | [G,D]4 [E,B,]2 [C,C]4 [C,C]2 | (B,2 A,2) G,2 B,6 | %12
 [G,B,]4 [G,B,]2 [C,C]4 [D,A,]2 | [G,D]4 [G,D]2 [D,A,]4 [D,A,]2 | [G,B,]4 [G,B,]2 D4 [D,D]2 | %15
 [G,,B,]12 |] %16
V:4
 x12 | x12 | x6 (D,2 B,,2) x2 | x12 | x12 | x12 | x6 (D,2 B,,2) x2 | x12 | G,4 x8 | x12 | x12 | %11
 G,4 G,2 B,6 | x12 | x12 | x6 (D,2 B,,2) x2 | x12 |] %16

